X: 1
T: Donald MacLean's Farewell To Oban
Z: ceolachan
S: https://thesession.org/tunes/4806#setting4806
R: barndance
M: 4/4
L: 1/8
K: Gmaj
|: G>A |B2 A<G d2 e>d | B<dG>A B2 g>e | d2 g>e d<eG>B | d>BA>G D2 G>A |
B2 A<G d2 e>d | B<dG>A B2 g2 | e>dg>e d2 G>A | B2 G2 G2 :|
|: (3ABc |d2 B>c d2 e>=f | e2- e>f g- g>f | e<dg>e d<eG>B | d>BA>G A2 B>c |
d2 B>c B<de>f | g2 e>f e<g-g>f | e>dg>e d<eG>A | B2 G>F G2 :|
|: G>A |B<GB>c d<GB>d | e<Gd<G B2 e>f | g<GB>c d<GB>c | d>BA>G A2 G>A |
B<GB>c d2 (3Bcd | e>Gd>G B2 (3def | g<Gg>e d<eG>A | B>G (3GGG G2 :|
|: (3ABc |d2 g>d B2 gd | e>fg<e c2 g>e | d2 e>d B2 G>B |
[1 d>BA>G A2 B>c | d2 g>d B2 g>d | e>fg>e c2 g2 | e>dg>e d<eG>A | B<G G>F G2 :|
[2 d>BA>G D2 G>A | B<dc<e d>BAG | c>BA<G B2 ge | d2 g>e d<eGA | B2 G2 G2 |]
